X:80
T: ICH WILL EUCH ERZAEHLEN
N: E1105
O: Europa, Mitteleuropa, Deutschland, Pommern, Stralsund; Greifswald
R: Wunsch - Lied, Luegen - Maerchen
M: 6/8
L: 1/16
K: G
D2 | D2G2G2G2B2B2 | B2A2A2A4
D2 | D2A2A2A2c2c2 | c4B2B4
B2 | B6d4A2 | B6A4
G2 | d2d2d2d2e2d2 | d2c2c2c4
d2 | B4B2d2c2F2 | A6G4
D2 | B3AB2G4D2 | B3AB2G4
d2 | B4G2d2c2F2 | A6G4

